humanity-icon-theme/Humanity/devices/64/multimedia-player-ipod-touch.svg

<?xml version="1.0" encoding="UTF-8" standalone="no"?>
<!-- Created with Inkscape (http://www.inkscape.org/) -->
<svg
   xmlns:svg="http://www.w3.org/2000/svg"
   xmlns="http://www.w3.org/2000/svg"
   xmlns:xlink="http://www.w3.org/1999/xlink"
   version="1.0"
   width="64"
   height="64"
   id="svg3311">
  <defs
     id="defs3313">
    <radialGradient
       cx="51.4375"
       cy="-12.203125"
       r="2.171875"
       fx="51.4375"
       fy="-12.203125"
       id="radialGradient2484"
       xlink:href="#linearGradient51765"
       gradientUnits="userSpaceOnUse"
       gradientTransform="matrix(-1.8417267,-5.8450938e-8,-1.2125708e-7,0.9200109,52.236437,52.586419)" />
    <linearGradient
       id="linearGradient51765">
      <stop
         id="stop51767"
         style="stop-color:#000000;stop-opacity:1"
         offset="0" />
      <stop
         id="stop51769"
         style="stop-color:#000000;stop-opacity:0"
         offset="1" />
    </linearGradient>
    <radialGradient
       cx="51.4375"
       cy="-12.203125"
       r="2.171875"
       fx="51.4375"
       fy="-12.203125"
       id="radialGradient2482"
       xlink:href="#linearGradient51765"
       gradientUnits="userSpaceOnUse"
       gradientTransform="matrix(1.8417267,-5.1455073e-7,6.2669991e-7,0.9200109,-115.2312,52.586443)" />
    <linearGradient
       id="linearGradient47870">
      <stop
         id="stop47872"
         style="stop-color:#000000;stop-opacity:0"
         offset="0" />
      <stop
         id="stop47878"
         style="stop-color:#000000;stop-opacity:1"
         offset="0.5" />
      <stop
         id="stop47874"
         style="stop-color:#000000;stop-opacity:0"
         offset="1" />
    </linearGradient>
    <linearGradient
       x1="32.084972"
       y1="-14.402173"
       x2="32.084972"
       y2="-5.5633383"
       id="linearGradient2480"
       xlink:href="#linearGradient47870"
       gradientUnits="userSpaceOnUse"
       gradientTransform="matrix(0.6655121,0,0,0.4518781,-54.615029,45.875214)" />
    <linearGradient
       id="linearGradient3176">
      <stop
         id="stop3178"
         style="stop-color:#aaaaaa;stop-opacity:1"
         offset="0" />
      <stop
         id="stop3180"
         style="stop-color:#6c6c6c;stop-opacity:1"
         offset="1" />
    </linearGradient>
    <linearGradient
       x1="24"
       y1="41.209427"
       x2="24"
       y2="44.02306"
       id="linearGradient2517"
       xlink:href="#linearGradient3176"
       gradientUnits="userSpaceOnUse"
       gradientTransform="matrix(1.319999,0,0,1.3333333,0.3200235,1.4999896)" />
    <linearGradient
       id="linearGradient3188">
      <stop
         id="stop3190"
         style="stop-color:#404040;stop-opacity:1"
         offset="0" />
      <stop
         id="stop3192"
         style="stop-color:#282828;stop-opacity:1"
         offset="1" />
    </linearGradient>
    <linearGradient
       x1="23.052357"
       y1="3"
       x2="23.052357"
       y2="42.073647"
       id="linearGradient2514"
       xlink:href="#linearGradient3188"
       gradientUnits="userSpaceOnUse"
       gradientTransform="matrix(1.380951,0,0,1.3684203,-1.1428241,0.7105495)" />
    <linearGradient
       id="linearGradient3219">
      <stop
         id="stop3221"
         style="stop-color:#3c3c3c;stop-opacity:1"
         offset="0" />
      <stop
         id="stop3223"
         style="stop-color:#313131;stop-opacity:1"
         offset="1" />
    </linearGradient>
    <radialGradient
       cx="24.000002"
       cy="22.5"
       r="10"
       fx="24.000002"
       fy="22.5"
       id="radialGradient2511"
       xlink:href="#linearGradient3219"
       gradientUnits="userSpaceOnUse"
       gradientTransform="matrix(1.4210508,0,0,1.8173064,-2.1052221,-10.889394)" />
    <linearGradient
       id="linearGradient3208">
      <stop
         id="stop3210"
         style="stop-color:#ffffff;stop-opacity:1"
         offset="0" />
      <stop
         id="stop3212"
         style="stop-color:#ffffff;stop-opacity:0"
         offset="1" />
    </linearGradient>
    <linearGradient
       x1="24"
       y1="4"
       x2="24"
       y2="48.301048"
       id="linearGradient2508"
       xlink:href="#linearGradient3208"
       gradientUnits="userSpaceOnUse"
       gradientTransform="matrix(1.4210508,0,0,1.3888879,-2.1052236,0.2500195)" />
    <linearGradient
       id="linearGradient3246">
      <stop
         id="stop3248"
         style="stop-color:#e6e6e6;stop-opacity:1"
         offset="0" />
      <stop
         id="stop3250"
         style="stop-color:#e6e6e6;stop-opacity:0"
         offset="1" />
    </linearGradient>
    <linearGradient
       x1="14"
       y1="2"
       x2="32"
       y2="40"
       id="linearGradient2505"
       xlink:href="#linearGradient3246"
       gradientUnits="userSpaceOnUse"
       gradientTransform="matrix(1.4999999,0,0,1.4,-3.5000001,0)" />
    <linearGradient
       id="linearGradient3260">
      <stop
         id="stop3262"
         style="stop-color:#333333;stop-opacity:1"
         offset="0" />
      <stop
         id="stop3264"
         style="stop-color:#3e3e3e;stop-opacity:1"
         offset="1" />
    </linearGradient>
    <linearGradient
       x1="24"
       y1="37"
       x2="24"
       y2="39"
       id="linearGradient2529"
       xlink:href="#linearGradient3260"
       gradientUnits="userSpaceOnUse"
       gradientTransform="matrix(1.4320983,0,0,1.3866663,-2.3703631,0.1266745)" />
  </defs>
  <g
     id="layer1">
    <g
       transform="matrix(1.2666667,0,0,1.7741936,71.896685,-15.931268)"
       id="g3423">
      <rect
         width="22"
         height="3.9940758"
         x="-42.497383"
         y="39.367184"
         id="rect46899"
         style="opacity:0.3;fill:url(#linearGradient2480);fill-opacity:1;fill-rule:evenodd;stroke:none" />
      <path
         d="M -20.497383,39.36126 L -20.497383,43.357557 C -18.292362,43.342467 -16.497383,42.459765 -16.497383,41.366469 C -16.497383,40.273174 -18.292361,39.376347 -20.497383,39.36126 z"
         id="path48849"
         style="opacity:0.3;fill:url(#radialGradient2482);fill-opacity:1;fill-rule:evenodd;stroke:none" />
      <path
         d="M -42.497383,39.36126 L -42.497383,43.357557 C -44.702404,43.342467 -46.497383,42.459765 -46.497383,41.366469 C -46.497383,40.273174 -44.702405,39.376347 -42.497383,39.36126 z"
         id="path52742"
         style="opacity:0.3;fill:url(#radialGradient2484);fill-opacity:1;fill-rule:evenodd;stroke:none" />
    </g>
    <rect
       width="33.000076"
       height="56.000099"
       rx="3"
       ry="3"
       x="15.499961"
       y="3.4999399"
       id="rect3166"
       style="fill:#e6e6e6;fill-opacity:1;fill-rule:nonzero;stroke:url(#linearGradient2517);stroke-width:0.9999218;stroke-linecap:butt;stroke-linejoin:round;marker:none;marker-start:none;marker-mid:none;marker-end:none;stroke-miterlimit:4;stroke-dasharray:none;stroke-dashoffset:0;stroke-opacity:1;visibility:visible;display:inline;overflow:visible;enable-background:accumulate" />
    <rect
       width="29.000078"
       height="52.00008"
       rx="2"
       ry="2"
       x="17.499962"
       y="5.4999671"
       id="rect3184"
       style="fill:url(#linearGradient2514);fill-opacity:1;fill-rule:nonzero;stroke:#1a1a1a;stroke-width:0.99992192;stroke-linecap:butt;stroke-linejoin:round;marker:none;marker-start:none;marker-mid:none;marker-end:none;stroke-miterlimit:4;stroke-dasharray:none;stroke-dashoffset:0;stroke-opacity:1;visibility:visible;display:inline;overflow:visible;enable-background:accumulate" />
    <rect
       width="27.000078"
       height="35.00008"
       x="18.49996"
       y="12.499959"
       id="rect3216"
       style="fill:url(#radialGradient2511);fill-opacity:1;fill-rule:nonzero;stroke:#212121;stroke-width:0.99992162;stroke-linecap:butt;stroke-linejoin:round;marker:none;marker-start:none;marker-mid:none;marker-end:none;stroke-miterlimit:4;stroke-dasharray:none;stroke-dashoffset:0;stroke-opacity:1;visibility:visible;display:inline;overflow:visible;enable-background:accumulate" />
    <rect
       width="27.000078"
       height="50.000076"
       rx="1.0055172"
       ry="1.0016019"
       x="18.499962"
       y="6.4999609"
       id="rect3196"
       style="opacity:0.2;fill:none;fill-opacity:1;fill-rule:nonzero;stroke:url(#linearGradient2508);stroke-width:0.99992192;stroke-linecap:butt;stroke-linejoin:round;marker:none;marker-start:none;marker-mid:none;marker-end:none;stroke-miterlimit:4;stroke-dasharray:none;stroke-dashoffset:0;stroke-opacity:1;visibility:visible;display:inline;overflow:visible;enable-background:accumulate" />
    <path
       d="M 19,7 L 19,56 L 43,7 L 19,7 z"
       id="rect3238"
       style="opacity:0.15;fill:url(#linearGradient2505);fill-opacity:1;fill-rule:nonzero;stroke:none;stroke-width:0.99992186;stroke-linecap:butt;stroke-linejoin:round;marker:none;marker-start:none;marker-mid:none;marker-end:none;stroke-miterlimit:4;stroke-dasharray:none;stroke-dashoffset:0;stroke-opacity:1;visibility:visible;display:inline;overflow:visible;enable-background:accumulate" />
    <rect
       width="8"
       height="1"
       rx="0.5"
       ry="0.5"
       x="28"
       y="9"
       id="rect3233"
       style="fill:#333333;fill-opacity:1;fill-rule:nonzero;stroke:none;stroke-width:0.99992174;stroke-linecap:butt;stroke-linejoin:round;marker:none;marker-start:none;marker-mid:none;marker-end:none;stroke-miterlimit:4;stroke-dasharray:none;stroke-dashoffset:0;stroke-opacity:1;visibility:visible;display:inline;overflow:visible;enable-background:accumulate" />
    <rect
       width="1"
       height="1"
       x="15"
       y="14"
       id="rect3254"
       style="fill:#7f7f7f;fill-opacity:1;fill-rule:nonzero;stroke:none;stroke-width:0.99992174;stroke-linecap:butt;stroke-linejoin:round;marker:none;marker-start:none;marker-mid:none;marker-end:none;stroke-miterlimit:4;stroke-dasharray:none;stroke-dashoffset:0;stroke-opacity:1;visibility:visible;display:inline;overflow:visible;enable-background:accumulate" />
    <rect
       width="1"
       height="4"
       x="15"
       y="16"
       id="rect3256"
       style="fill:#7f7f7f;fill-opacity:1;fill-rule:nonzero;stroke:none;stroke-width:0.99992174;stroke-linecap:butt;stroke-linejoin:round;marker:none;marker-start:none;marker-mid:none;marker-end:none;stroke-miterlimit:4;stroke-dasharray:none;stroke-dashoffset:0;stroke-opacity:1;visibility:visible;display:inline;overflow:visible;enable-background:accumulate" />
    <path
       d="M 34.066316,52.719021 A 1.8987783,1.8987783 0 1 1 30.268759,52.719021 A 1.8987783,1.8987783 0 1 1 34.066316,52.719021 z"
       transform="matrix(1.0721179,0,0,1.1212641,-2.4873943,-6.9829119)"
       id="path2523"
       style="opacity:1;fill:url(#linearGradient2529);fill-opacity:1;fill-rule:nonzero;stroke:none;stroke-width:0.99992174;stroke-linecap:butt;stroke-linejoin:round;marker:none;marker-start:none;marker-mid:none;marker-end:none;stroke-miterlimit:4;stroke-dasharray:none;stroke-dashoffset:0;stroke-opacity:1;visibility:visible;display:inline;overflow:visible;enable-background:accumulate" />
    <rect
       width="1"
       height="4"
       x="3"
       y="-43"
       transform="matrix(0,1,-1,0,0,0)"
       id="rect3307"
       style="fill:#7f7f7f;fill-opacity:1;fill-rule:nonzero;stroke:none;stroke-width:0.99992174;stroke-linecap:butt;stroke-linejoin:round;marker:none;marker-start:none;marker-mid:none;marker-end:none;stroke-miterlimit:4;stroke-dasharray:none;stroke-dashoffset:0;stroke-opacity:1;visibility:visible;display:inline;overflow:visible;enable-background:accumulate" />
    <rect
       width="1"
       height="4"
       x="15"
       y="21"
       id="rect3309"
       style="fill:#7f7f7f;fill-opacity:1;fill-rule:nonzero;stroke:none;stroke-width:0.99992174;stroke-linecap:butt;stroke-linejoin:round;marker:none;marker-start:none;marker-mid:none;marker-end:none;stroke-miterlimit:4;stroke-dasharray:none;stroke-dashoffset:0;stroke-opacity:1;visibility:visible;display:inline;overflow:visible;enable-background:accumulate" />
  </g>
</svg>

<?xml version="1.0" encoding="UTF-8" standalone="no"?>
<!-- Created with Inkscape (http://www.inkscape.org/) -->
<svg id="svg3311" xmlns="http://www.w3.org/2000/svg" height="64" width="64" version="1.0" xmlns:xlink="http://www.w3.org/1999/xlink">
 <defs id="defs3313">
  <radialGradient id="radialGradient2484" xlink:href="#linearGradient51765" gradientUnits="userSpaceOnUse" cy="-12.203" cx="51.438" gradientTransform="matrix(-1.8417 -5.8451e-8 -1.2126e-7 .92001 52.236 52.586)" r="2.1719"/>
  <linearGradient id="linearGradient51765">
   <stop id="stop51767" offset="0"/>
   <stop id="stop51769" style="stop-opacity:0" offset="1"/>
  </linearGradient>
  <radialGradient id="radialGradient2482" xlink:href="#linearGradient51765" gradientUnits="userSpaceOnUse" cy="-12.203" cx="51.438" gradientTransform="matrix(1.8417 -5.1455e-7 6.267e-7 .92001 -115.23 52.586)" r="2.1719"/>
  <linearGradient id="linearGradient2480" y2="-5.5633" gradientUnits="userSpaceOnUse" x2="32.085" gradientTransform="matrix(.66551 0 0 .45188 -54.615 45.875)" y1="-14.402" x1="32.085">
   <stop id="stop47872" style="stop-opacity:0" offset="0"/>
   <stop id="stop47878" offset=".5"/>
   <stop id="stop47874" style="stop-opacity:0" offset="1"/>
  </linearGradient>
  <linearGradient id="linearGradient2517" y2="44.023" gradientUnits="userSpaceOnUse" x2="24" gradientTransform="matrix(1.32 0 0 1.3333 .32002 1.5)" y1="41.209" x1="24">
   <stop id="stop3178" style="stop-color:#aaa" offset="0"/>
   <stop id="stop3180" style="stop-color:#6c6c6c" offset="1"/>
  </linearGradient>
  <linearGradient id="linearGradient2514" y2="42.074" gradientUnits="userSpaceOnUse" x2="23.052" gradientTransform="matrix(1.381 0 0 1.3684 -1.1428 .71055)" y1="3" x1="23.052">
   <stop id="stop3190" style="stop-color:#404040" offset="0"/>
   <stop id="stop3192" style="stop-color:#282828" offset="1"/>
  </linearGradient>
  <radialGradient id="radialGradient2511" gradientUnits="userSpaceOnUse" cy="22.5" cx="24" gradientTransform="matrix(1.4211 0 0 1.8173 -2.1052 -10.889)" r="10">
   <stop id="stop3221" style="stop-color:#3c3c3c" offset="0"/>
   <stop id="stop3223" style="stop-color:#313131" offset="1"/>
  </radialGradient>
  <linearGradient id="linearGradient2508" y2="48.301" gradientUnits="userSpaceOnUse" x2="24" gradientTransform="matrix(1.4211 0 0 1.3889 -2.1052 .25002)" y1="4" x1="24">
   <stop id="stop3210" style="stop-color:#fff" offset="0"/>
   <stop id="stop3212" style="stop-color:#fff;stop-opacity:0" offset="1"/>
  </linearGradient>
  <linearGradient id="linearGradient2505" y2="40" gradientUnits="userSpaceOnUse" x2="32" gradientTransform="matrix(1.5 0 0 1.4 -3.5 0)" y1="2" x1="14">
   <stop id="stop3248" style="stop-color:#e6e6e6" offset="0"/>
   <stop id="stop3250" style="stop-color:#e6e6e6;stop-opacity:0" offset="1"/>
  </linearGradient>
  <linearGradient id="linearGradient2529" y2="39" gradientUnits="userSpaceOnUse" x2="24" gradientTransform="matrix(1.4321 0 0 1.3867 -2.3704 .12667)" y1="37" x1="24">
   <stop id="stop3262" style="stop-color:#333" offset="0"/>
   <stop id="stop3264" style="stop-color:#3e3e3e" offset="1"/>
  </linearGradient>
 </defs>
 <g id="layer1">
  <g id="g3423" transform="matrix(1.2667 0 0 1.7742 71.897 -15.931)">
   <rect id="rect46899" style="opacity:.3;fill:url(#linearGradient2480);fill-rule:evenodd" height="3.9941" width="22" y="39.367" x="-42.497"/>
   <path id="path48849" style="opacity:.3;fill:url(#radialGradient2482);fill-rule:evenodd" d="m-20.497 39.361v3.997c2.205-0.016 4-0.898 4-1.992 0-1.093-1.795-1.99-4-2.005z"/>
   <path id="path52742" style="opacity:.3;fill:url(#radialGradient2484);fill-rule:evenodd" d="m-42.497 39.361v3.997c-2.205-0.016-4-0.898-4-1.992 0-1.093 1.795-1.99 4-2.005z"/>
  </g>
  <rect id="rect3166" style="stroke-linejoin:round;stroke-width:.99992;stroke:url(#linearGradient2517);fill:#e6e6e6" rx="3" ry="3" height="56" width="33" y="3.4999" x="15.5"/>
  <rect id="rect3184" style="stroke-linejoin:round;stroke-width:.99992;stroke:#1a1a1a;fill:url(#linearGradient2514)" rx="2" ry="2" height="52" width="29" y="5.5" x="17.5"/>
  <rect id="rect3216" style="stroke-linejoin:round;stroke-width:.99992;stroke:#212121;fill:url(#radialGradient2511)" height="35" width="27" y="12.5" x="18.5"/>
  <rect id="rect3196" style="opacity:.2;stroke-linejoin:round;stroke-width:.99992;stroke:url(#linearGradient2508);fill:none" rx="1.0055" ry="1.0016" height="50" width="27" y="6.5" x="18.5"/>
  <path id="rect3238" style="opacity:.15;fill:url(#linearGradient2505)" d="m19 7v49l24-49h-24z"/>
  <rect id="rect3233" style="fill:#333" rx=".5" ry=".5" height="1" width="8" y="9" x="28"/>
  <rect id="rect3254" style="fill:#7f7f7f" height="1" width="1" y="14" x="15"/>
  <rect id="rect3256" style="fill:#7f7f7f" height="4" width="1" y="16" x="15"/>
  <path id="path2523" style="fill:url(#linearGradient2529)" d="m34.066 52.719a1.8988 1.8988 0 1 1 -3.797 0 1.8988 1.8988 0 1 1 3.797 0z" transform="matrix(1.0721 0 0 1.1213 -2.4874 -6.9829)"/>
  <rect id="rect3307" style="fill:#7f7f7f" transform="rotate(90)" height="4" width="1" y="-43" x="3"/>
  <rect id="rect3309" style="fill:#7f7f7f" height="4" width="1" y="21" x="15"/>
 </g>
</svg>
